packages/foundations/assets/icons/functional/images/devices/fax_machine_28.svg

<svg width="28" height="28" viewBox="0 0 28 28" fill="none" xmlns="http://www.w3.org/2000/svg">
<g clip-path="url(#clip0_185_709)">
<path fill-rule="evenodd" clip-rule="evenodd" d="M18.3956 1.75C18.6484 1.75 18.8584 1.84713 19.0133 2.00288L22.4976 5.51512C22.6656 5.684 22.7504 5.908 22.7504 6.13287L22.7496 11.3759C24.1933 11.3768 25.3746 12.558 25.3746 14.0026V20.9982C25.3746 22.4429 24.1924 23.625 22.7478 23.625H10.3499L10.3496 23.8987C10.3429 24.2391 10.1917 26.25 7.59368 26.25C4.52593 26.25 2.62543 22.8629 2.62543 17.4632C2.62543 10.6417 5.14193 9.04663 7.00043 8.79463V3.717C7.00043 2.62063 7.87193 1.75 8.96743 1.75H18.3956ZM7.59455 10.5C5.27318 10.5 4.3693 13.4995 4.3693 17.4632C4.3693 20.9554 5.35543 24.4676 7.59455 24.4676C8.1283 24.4676 8.6008 24.3854 8.6008 23.8717V21.6536C8.6008 21.3456 8.33393 21.0989 8.00493 21.0989H7.28568C6.44393 21.0989 6.11493 20.0305 6.11493 17.4834C6.11493 15.2451 6.42293 13.8687 7.28568 13.8687H8.00493C8.33393 13.8687 8.6008 13.622 8.6008 13.314V11.0959C8.6008 10.6234 8.21055 10.5 7.59455 10.5ZM22.7478 13.125H10.3499V13.314C10.3499 14.5845 9.2973 15.6187 8.00405 15.6187H7.98655C7.92618 15.9513 7.86405 16.5235 7.86405 17.4834C7.86405 18.4433 7.9148 19.0146 7.96818 19.3489H8.00405C9.2973 19.3489 10.3499 20.3831 10.3499 21.6536V21.875H22.7496C23.2247 21.875 23.6263 21.4734 23.6246 20.9974V14.0017C23.6246 13.5266 23.2229 13.125 22.7478 13.125ZM15.7609 18.375C16.2343 18.375 16.6254 18.7617 16.6254 19.25C16.6254 19.7383 16.2343 20.125 15.7609 20.125H15.7408C15.2674 20.125 14.8763 19.7383 14.8763 19.25C14.8763 18.7617 15.2674 18.375 15.7408 18.375H15.7609ZM21.0109 18.375C21.4843 18.375 21.8754 18.7617 21.8754 19.25C21.8754 19.7383 21.4843 20.125 21.0109 20.125H20.9908C20.5174 20.125 20.1263 19.7383 20.1263 19.25C20.1263 18.7617 20.5174 18.375 20.9908 18.375H21.0109ZM18.3859 18.375C18.8593 18.375 19.2504 18.7617 19.2504 19.25C19.2504 19.7383 18.8593 20.125 18.3859 20.125H18.3658C17.8924 20.125 17.5013 19.7383 17.5013 19.25C17.5013 18.7617 17.8924 18.375 18.3658 18.375H18.3859ZM15.7609 15.75C16.2343 15.75 16.6254 16.1368 16.6254 16.625C16.6254 17.1132 16.2343 17.5 15.7609 17.5H15.7408C15.2674 17.5 14.8763 17.1132 14.8763 16.625C14.8763 16.1368 15.2674 15.75 15.7408 15.75H15.7609ZM21.0109 15.75C21.4843 15.75 21.8754 16.1368 21.8754 16.625C21.8754 17.1132 21.4843 17.5 21.0109 17.5H20.9908C20.5174 17.5 20.1263 17.1132 20.1263 16.625C20.1263 16.1368 20.5174 15.75 20.9908 15.75H21.0109ZM18.3859 15.75C18.8593 15.75 19.2504 16.1368 19.2504 16.625C19.2504 17.1132 18.8593 17.5 18.3859 17.5H18.3658C17.8924 17.5 17.5013 17.1132 17.5013 16.625C17.5013 16.1368 17.8924 15.75 18.3658 15.75H18.3859ZM16.6744 3.5H8.95955C8.84668 3.5 8.73468 3.584 8.73468 3.72487V8.9145C10.2913 9.4115 10.3499 10.8964 10.3499 11.0959V11.375H21.0004V7.88287H17.5451C17.0673 7.88287 16.6744 7.49 16.6744 7.01225V3.5ZM18.3754 3.85788V6.13375H20.6233L18.3754 3.85788Z" fill="#1A1C1F"/>
</g>
<defs>
<clipPath id="clip0_185_709">
<rect width="28" height="28" fill="white"/>
</clipPath>
</defs>
</svg>

<svg xmlns="http://www.w3.org/2000/svg" width="28" height="28" fill="none"><g clip-path="url(#a)"><path fill="#1A1C1F" fill-rule="evenodd" d="M18.396 1.75c.252 0 .462.097.617.253l3.485 3.512a.87.87 0 0 1 .252.618v5.243a2.634 2.634 0 0 1 2.625 2.627v6.995a2.635 2.635 0 0 1-2.627 2.627H10.35v.274c-.007.34-.158 2.351-2.756 2.351-3.068 0-4.969-3.387-4.969-8.787 0-6.821 2.517-8.416 4.375-8.668V3.717c0-1.096.872-1.967 1.967-1.967zM7.595 10.5c-2.322 0-3.226 3-3.226 6.963 0 3.492.986 7.005 3.226 7.005.533 0 1.006-.083 1.006-.596v-2.218c0-.308-.267-.555-.596-.555h-.72c-.841 0-1.17-1.069-1.17-3.616 0-2.238.308-3.614 1.17-3.614h.72c.329 0 .596-.247.596-.555v-2.218c0-.473-.39-.596-1.006-.596m15.153 2.625H10.35v.189c0 1.27-1.053 2.305-2.346 2.305h-.017c-.06.332-.123.904-.123 1.864s.05 1.532.104 1.866h.036c1.293 0 2.346 1.034 2.346 2.305v.221h12.4a.886.886 0 0 0 .875-.878v-6.995a.89.89 0 0 0-.877-.877m-6.987 5.25a.87.87 0 0 1 .864.875.87.87 0 0 1-.864.875h-.02a.87.87 0 0 1-.865-.875.87.87 0 0 1 .865-.875zm5.25 0a.87.87 0 0 1 .864.875.87.87 0 0 1-.864.875h-.02a.87.87 0 0 1-.865-.875.87.87 0 0 1 .865-.875zm-2.625 0a.87.87 0 0 1 .864.875.87.87 0 0 1-.864.875h-.02a.87.87 0 0 1-.865-.875.87.87 0 0 1 .865-.875zM15.76 15.75a.87.87 0 0 1 .864.875.87.87 0 0 1-.864.875h-.02a.87.87 0 0 1-.865-.875.87.87 0 0 1 .865-.875zm5.25 0a.87.87 0 0 1 .864.875.87.87 0 0 1-.864.875h-.02a.87.87 0 0 1-.865-.875.87.87 0 0 1 .865-.875zm-2.625 0a.87.87 0 0 1 .864.875.87.87 0 0 1-.864.875h-.02a.87.87 0 0 1-.865-.875.87.87 0 0 1 .865-.875zM16.674 3.5H8.96a.22.22 0 0 0-.225.225v5.19c1.556.497 1.615 1.981 1.615 2.18v.28H21V7.883h-3.455a.875.875 0 0 1-.87-.87zm1.701.358v2.276h2.248z" clip-rule="evenodd"/></g><defs><clipPath id="a"><path fill="#fff" d="M0 0h28v28H0z"/></clipPath></defs></svg>
